svg/set/M21/U.svg

<?xml version="1.0" encoding="UTF-8" standalone="no"?>
<svg
   height="612.85718"
   width="1355.4628"
   version="1.1"
   id="svg6"
   xmlns:xlink="http://www.w3.org/1999/xlink"
   xmlns="http://www.w3.org/2000/svg"
   xmlns:svg="http://www.w3.org/2000/svg">
  <defs
     id="defs5">
    <linearGradient
       id="g1">
      <stop
         offset="0"
         style="stop-color:#536e78"
         id="stop1" />
      <stop
         offset="0.15"
         style="stop-color:#829ba5"
         id="stop2" />
      <stop
         offset="0.5"
         style="stop-color:#d9eaf3"
         id="stop3" />
      <stop
         offset="0.85"
         style="stop-color:#829ba5"
         id="stop4" />
      <stop
         offset="1"
         style="stop-color:#536e78"
         id="stop5" />
    </linearGradient>
    <linearGradient
       gradientTransform="translate(300.81986,-415.21932)"
       gradientUnits="userSpaceOnUse"
       xlink:href="#g1"
       id="g2"
       y2="1028.0765"
       x2="981.07141"
       y1="415.21933"
       x1="-230.81985" />
  </defs>
  <path
     d="m 70,0 h 1211.8913 c 0,0 73.5715,160.35086 73.5715,306.42786 0,146.077 -73.5715,306.42932 -73.5715,306.42932 H 70 c 0,0 -70,-160.35232 -70,-306.42932 C 0,160.35086 70,0 70,0 Z"
     style="fill:#000000"
     id="path5" />
  <path
     d="m 94.257812,35.71875 c 0,0 -58.78125,124.64175 -58.78125,270.71875 0,146.077 58.78125,270 58.78125,270 H 1260.1016 c 0,0 60.7187,-123.923 60.7187,-270 0,-146.077 -60.7187,-270.71875 -60.7187,-270.71875 z M 915.75781,88.712891 c 47.9389,0 104.98509,27.917059 104.97069,76.261719 -0.014,48.34465 -3.2482,53.39729 -121.4492,180.49609 h 89.80468 l 19.99802,-45.83789 c 0,0 9.843,-2.5992 11.6465,0 V 402.60156 H 816.5 l -3.98633,-8.66601 C 910.12136,283.06077 947.3418,204.32158 947.3418,173.7168 c 0,-30.60478 -7.49156,-50.03711 -33.54883,-50.03711 -26.05726,0 -33.45117,29.58822 -33.45117,39.77148 0,10.18325 0.39978,16.24405 5.64648,24.12891 l -10.06055,11.625 -54.14257,-70.17188 c 23.14021,-19.82435 51.79722,-40.320309 93.97265,-40.320309 z m 249.02339,0 h 13.2735 V 333.29102 c 0,32.33233 21.0899,53.47656 43.9941,53.47656 v 15.83398 h -159.5195 v -15.83398 l 44.4902,-15.71289 V 160.34961 h -44.4902 v -15.71094 c 44.5035,-12.81554 68.3433,-28.09659 102.2519,-55.925779 z M 234.66406,93.21875 h 165.1875 c 5.03381,1e-5 9.51012,2.45745 11.3125,6.90625 0.005,0.0129 0.0261,0.0183 0.0312,0.0312 L 481.13281,274.75 c 2.89749,7.23305 5.10538,7.30417 8.21875,0.25 l 0.125,-0.25 48.90625,-112.8125 c 0.53114,-1.22511 1.05551,-2.43227 1.5625,-3.65625 6.37142,-15.38212 9.15764,-31.11983 -33.75,-58.4375 0.0614,-0.004 0.12606,0.004 0.1875,0 -3.81566,-2.82178 -7.13975,-6.625 4.15625,-6.625 h 190.8125 c 7.41778,0 7.91852,2.82931 0.6875,7.34375 0.007,0.012 0.0243,0.0195 0.0312,0.0312 l -2.21875,1.375 c -25.95395,16.20344 -28.94155,34.19486 -13.6875,71.9375 l 100.8438,249.5313 c 0.0855,0.21146 0.16416,0.41483 0.25,0.625 9.74528,23.86009 22.00916,39.5434 50.5,70.53125 0.7831,0.85168 1.48826,1.60109 2.125,2.3125 4.45721,4.9799 4.99493,6.6475 -2.8125,6.65625 h -205.9375 -1.4375 c -7.01362,-0.20644 -9.78889,-2.09317 1.0625,-9.28125 31.42943,-23.6768 28.59755,-46.92285 12.125,-87.96875 l -0.125,-0.28125 -58.46875,-145.4375 -0.78125,-1.90625 c -3.89963,-8.75552 -6.92214,-8.2812 -11.25,1.375 -0.0823,0.18362 -0.16674,0.34097 -0.25,0.53125 L 457.78906,521.875 c -0.15118,0.10037 -0.21251,0.21119 -0.15625,0.3125 -5.94732,13.60325 -7.7966,13.78903 -13.15625,0.625 -0.088,-0.21601 -0.16013,-0.40178 -0.25,-0.625 0.0833,-0.13038 0.0119,-0.2778 -0.15625,-0.40625 l -105.15625,-261.1875 -0.3125,-0.71875 c -4.18525,-10.03096 -7.29359,-9.88469 -11.875,0.46875 -0.0394,0.089 -0.0854,0.15946 -0.125,0.25 L 263.57031,404.625 c -0.0419,0.0957 -0.0836,0.18564 -0.125,0.28125 -13.73203,31.72751 0.66941,56.28003 46.125,90.84375 -0.0213,0.0294 -0.0416,0.0645 -0.0625,0.0937 5.73296,4.11562 7.98378,7.71875 -2.46875,7.71875 h -183.1875 c -6.73778,0 -7.14587,-0.95646 -1.40625,-6.96875 26.14219,-27.40999 46.20534,-50.61806 59,-79.5 l 99.21875,-224.0312 c -0.008,-0.004 -0.0233,0.004 -0.0312,0 1.12493,-2.5402 2.22808,-4.96418 3.25,-7.3125 15.32881,-35.22472 17.53011,-50.023 -38.90625,-78.96875 l -10.96875,-5.625 c -0.0433,-0.0222 -0.0821,-0.0402 -0.125,-0.0625 -6.96565,-3.61933 -7.78404,-7.875 0.78125,-7.875 z"
     style="fill:url(#g2)"
     id="path6" />
</svg>

<?xml version="1.0" encoding="UTF-8" standalone="no"?>
<svg
   xmlns:dc="http://purl.org/dc/elements/1.1/"
   xmlns:cc="http://creativecommons.org/ns#"
   xmlns:rdf="http://www.w3.org/1999/02/22-rdf-syntax-ns#"
   xmlns:svg="http://www.w3.org/2000/svg"
   xmlns="http://www.w3.org/2000/svg"
   xmlns:xlink="http://www.w3.org/1999/xlink"
   height="612.85718"
   width="1355.4628"
   version="1.1">
  <defs>
    <linearGradient id="g1">
      <stop offset="0"    style="stop-color:#536e78" />
      <stop offset="0.15" style="stop-color:#829ba5" />
      <stop offset="0.5"  style="stop-color:#d9eaf3" />
      <stop offset="0.85" style="stop-color:#829ba5" />
      <stop offset="1"    style="stop-color:#536e78" />
    </linearGradient>
    <linearGradient
       gradientTransform="translate(300.81986,-415.21932)"
       gradientUnits="userSpaceOnUse"
       xlink:href="#g1"
       id="g2"
       y2="1028.0765"
       x2="981.07141"
       y1="415.21933"
       x1="-230.81985" />
  </defs>
  <path
     d="m 70,0 h 1211.8913 c 0,0 73.5715,160.35086 73.5715,306.42786 0,146.077 -73.5715,306.42932 -73.5715,306.42932 H 70 c 0,0 -70,-160.35232 -70,-306.42932 C 0,160.35086 70,0 70,0 Z"
     style="fill:#000000" />
  <path
     d="M 94.257812 35.71875 C 94.257812 35.71875 35.476562 160.3605 35.476562 306.4375 C 35.476562 452.5145 94.257812 576.4375 94.257812 576.4375 L 1260.1016 576.4375 C 1260.1016 576.4375 1320.8203 452.5145 1320.8203 306.4375 C 1320.8203 160.3605 1260.1016 35.71875 1260.1016 35.71875 L 94.257812 35.71875 z M 915.75781 88.712891 C 963.69671 88.712891 1020.7429 116.62995 1020.7285 164.97461 C 1020.7145 213.31926 1017.4803 218.3719 899.2793 345.4707 L 989.08398 345.4707 L 1009.082 299.63281 C 1009.082 299.63281 1018.925 297.03361 1020.7285 299.63281 L 1020.7285 402.60156 L 816.5 402.60156 L 812.51367 393.93555 C 910.12136 283.06077 947.3418 204.32158 947.3418 173.7168 C 947.3418 143.11202 939.85024 123.67969 913.79297 123.67969 C 887.73571 123.67969 880.3418 153.26791 880.3418 163.45117 C 880.3418 173.63442 880.74158 179.69522 885.98828 187.58008 L 875.92773 199.20508 L 821.78516 129.0332 C 844.92537 109.20885 873.58238 88.712891 915.75781 88.712891 z M 1164.7812 88.712891 L 1178.0547 88.712891 L 1178.0547 333.29102 C 1178.0547 365.62335 1199.1446 386.76758 1222.0488 386.76758 L 1222.0488 402.60156 L 1062.5293 402.60156 L 1062.5293 386.76758 L 1107.0195 371.05469 L 1107.0195 160.34961 L 1062.5293 160.34961 L 1062.5293 144.63867 C 1107.0328 131.82313 1130.8726 116.54208 1164.7812 88.712891 z M 234.66406 93.21875 L 399.85156 93.21875 C 404.88537 93.21876 409.36168 95.6762 411.16406 100.125 C 411.16906 100.1379 411.19021 100.14335 411.19531 100.15625 L 481.13281 274.75 C 484.0303 281.98305 486.23819 282.05417 489.35156 275 L 489.47656 274.75 L 538.38281 161.9375 C 538.91395 160.71239 539.43832 159.50523 539.94531 158.28125 C 546.31673 142.89913 549.10295 127.16142 506.19531 99.84375 C 506.25671 99.83975 506.32137 99.84775 506.38281 99.84375 C 502.56715 97.02197 499.24306 93.21875 510.53906 93.21875 L 701.35156 93.21875 C 708.76934 93.21875 709.27008 96.04806 702.03906 100.5625 C 702.04606 100.5745 702.06331 100.58195 702.07031 100.59375 L 699.85156 101.96875 C 673.89761 118.17219 670.91001 136.16361 686.16406 173.90625 L 787.00781 423.4375 C 787.09331 423.64896 787.17197 423.85233 787.25781 424.0625 C 797.00309 447.92259 809.26697 463.6059 837.75781 494.59375 C 838.54091 495.44543 839.24607 496.19484 839.88281 496.90625 C 844.34002 501.88615 844.87774 503.55375 837.07031 503.5625 L 631.13281 503.5625 L 629.69531 503.5625 C 622.68169 503.35606 619.90642 501.46933 630.75781 494.28125 C 662.18724 470.60445 659.35536 447.3584 642.88281 406.3125 L 642.75781 406.03125 L 584.28906 260.59375 L 583.50781 258.6875 C 579.60818 249.93198 576.58567 250.4063 572.25781 260.0625 C 572.17551 260.24612 572.09107 260.40347 572.00781 260.59375 L 457.78906 521.875 C 457.63788 521.97537 457.57655 522.08619 457.63281 522.1875 C 451.68549 535.79075 449.83621 535.97653 444.47656 522.8125 C 444.38856 522.59649 444.31643 522.41072 444.22656 522.1875 C 444.30986 522.05712 444.23846 521.9097 444.07031 521.78125 L 338.91406 260.59375 L 338.60156 259.875 C 334.41631 249.84404 331.30797 249.99031 326.72656 260.34375 C 326.68716 260.43275 326.64116 260.50321 326.60156 260.59375 L 263.57031 404.625 C 263.52841 404.7207 263.48671 404.81064 263.44531 404.90625 C 249.71328 436.63376 264.11472 461.18628 309.57031 495.75 C 309.54901 495.7794 309.52871 495.81455 309.50781 495.84375 C 315.24077 499.95937 317.49159 503.5625 307.03906 503.5625 L 123.85156 503.5625 C 117.11378 503.5625 116.70569 502.60604 122.44531 496.59375 C 148.5875 469.18376 168.65065 445.97569 181.44531 417.09375 L 280.66406 193.0625 C 280.65606 193.0585 280.64071 193.0665 280.63281 193.0625 C 281.75774 190.5223 282.86089 188.09832 283.88281 185.75 C 299.21162 150.52528 301.41292 135.727 244.97656 106.78125 L 234.00781 101.15625 C 233.96451 101.13405 233.92571 101.11605 233.88281 101.09375 C 226.91716 97.47442 226.09877 93.21875 234.66406 93.21875 z "
     style="fill:url(#g2)" />
</svg>
